X:1
T:Pune, CMD
T:Pune, CMD
T:Hubert Platt Main, 1884
T:Public Domain Courtesy of the Cyber Hymnal™
C:Hubert Platt Main, 1884
Z:Public Domain
Z:Courtesy of the Cyber Hymnal™
%%score ( 1 2 ) ( 3 4 )
L:1/8
Q:1/4=100
M:6/8
K:F
V:1 treble 
V:2 treble 
V:3 bass 
V:4 bass 
V:1
 [CF] | [CF]2 [FA] [FA]2 [Ac] | ([Ac][GB])[FA] [GB]2 [EG] | [FA]2 [Ac] (cB)[FA] | [EG]3- [EG]2 F | %5
 [CF]2 [FA] [FA]2 [Fc] | ([Fc][EB])[FA] [EB]2 [Gc] | [FA]2 [FB] (GF)[CE] | [CF]3- [CF]2 [Fc] | %9
 c3- c2 [Ec] | [Fc]2 [^Gd] [Ac]2 [FA] | Gc[Ee] [Fd]2 [F=B] | c3- !fermata![Ec]2 [GB] | %13
 [FA]2 [FA] ([FA][GB])[Ac] | ([Ac][GB])[FA] [GB]2 [Gc] | [FA]2 [FB] (GF)[CE] | [CF]3- [CF]2 |] %17
V:2
 x | x6 | x6 | x3 G2 x | x5 F | x6 | x6 | x3 C2 x | x6 | (E2 EGF) x | x6 | E2 x4 | EGF x3 | x6 | %14
 x6 | x3 C2 x | x5 |] %17
V:3
 [F,A,] | [F,A,]2 [F,C] [F,C]2 [F,C] | [C,C]2 [C,C] [C,C]2 [C,C] | [F,C]2 [F,C] [E,C]2 [F,C] | %4
 [C,C]3- [C,C]2 [F,A,] | [F,A,]2 [F,C] [F,C]2 [A,C] | C2 [F,C] [G,C]2 [E,C] | %7
 [F,C]2 [B,,D] (B,A,)[C,G,] | [F,A,]3- [F,A,]2 [F,A,] | (G,2 A,B,A,)[C,G,] | %10
 [F,A,]2 [F,=B,] [F,C]2 [F,C] | [G,C]2 [G,C] [G,=B,]2 [G,,D] | CB,A, !fermata![C,G,]2 [E,C] | %13
 [F,C]2 [F,C] [F,C]2 [F,C] | [C,C]2 [C,C] [C,C]2 [E,C] | [F,C]2 [B,,D] (B,A,)[C,G,] | %16
 [F,A,]3- [F,A,]2 |] %17
V:4
 x | x6 | x6 | x6 | x6 | x6 | (A,G,) x4 | x3 C,2 x | x6 | C,3- C,2 x | x6 | x6 | C,3- x3 | x6 | %14
 x6 | x3 C,2 x | x5 |] %17

